src/assets/duotone/Camera.svg

<svg width="24" height="24" viewBox="0 0 24 24"  xmlns="http://www.w3.org/2000/svg">
<path opacity="0.4" d="M6.76017 22H17.2402C20.0002 22 21.1002 20.31 21.2302 18.25L21.7502 9.99C21.8902 7.83 20.1702 6 18.0002 6C17.3902 6 16.8302 5.65 16.5502 5.11L15.8302 3.66C15.3702 2.75 14.1702 2 13.1502 2H10.8602C9.83017 2 8.63017 2.75 8.17017 3.66L7.45017 5.11C7.17017 5.65 6.61017 6 6.00017 6C3.83017 6 2.11017 7.83 2.25017 9.99L2.77017 18.25C2.89017 20.31 4.00017 22 6.76017 22Z" />
<path d="M13.5 8.75H10.5C10.09 8.75 9.75 8.41 9.75 8C9.75 7.59 10.09 7.25 10.5 7.25H13.5C13.91 7.25 14.25 7.59 14.25 8C14.25 8.41 13.91 8.75 13.5 8.75Z" />
<path d="M12.0001 18.1301C13.8668 18.1301 15.3801 16.6168 15.3801 14.7501C15.3801 12.8834 13.8668 11.3701 12.0001 11.3701C10.1334 11.3701 8.62012 12.8834 8.62012 14.7501C8.62012 16.6168 10.1334 18.1301 12.0001 18.1301Z" />
</svg>

<?xml version="1.0" encoding="UTF-8"?>
<svg width="24" height="24" viewBox="0 0 24 24" xmlns="http://www.w3.org/2000/svg">
 <path d="m6.7602 22h10.48c2.76 0 3.86-1.69 3.99-3.75l0.52-8.26c0.14-2.16-1.58-3.99-3.75-3.99-0.61 0-1.17-0.35-1.45-0.89l-0.72-1.45c-0.46-0.91-1.66-1.66-2.68-1.66h-2.29c-1.03 0-2.23 0.75-2.69 1.66l-0.72 1.45c-0.28 0.54-0.84 0.89-1.45 0.89-2.17 0-3.89 1.83-3.75 3.99l0.52 8.26c0.12 2.06 1.23 3.75 3.99 3.75z" opacity=".4"/>
 <path d="m13.5 8.75h-3c-0.41 0-0.75-0.34-0.75-0.75s0.34-0.75 0.75-0.75h3c0.41 0 0.75 0.34 0.75 0.75s-0.34 0.75-0.75 0.75z"/>
 <path d="m12 18.13c1.8667 0 3.38-1.5133 3.38-3.38s-1.5133-3.38-3.38-3.38-3.38 1.5133-3.38 3.38 1.5133 3.38 3.38 3.38z"/>
</svg>
